!!!OTL-incipit: Siehst du wohl, da kummt er, lange Schritte nimmt er
!!!ARE: Europa, Mitteleuropa, Deutschland, Ober - Franken, Grafengehaig
!!!SCT: V0003B
!!!TXL: @@BAR
!!!YEM: Copyright 1995, estate of Helmut Schaffrath.
**kern	**text
*ICvox	*
*M2/4	*
*k[b-]	*
*F:	*
=1	=1
{8c	Siehst
8c	du
8d	wohl,
8c	da
=2	=2
4f	kummt
4f}	er,
=3	=3
{8c	lan-
8c	-ge
8d	Schrit-
8c	-te
=4	=4
4f	nimmt
4f}	er.
=5	=5
{8.a	Siehst
16a	du
8g	wohl,
8f	da
=6	=6
8f	kummt
8e	er
4e}	schon,
=7	=7
{8.e	der
16d	be-
8e	-sof-
8d	-fne
=8	=8
8d	Schwie-
8c	-ger-
4c}	-sohn
==	==
!!!AGN: Geselligkeits - Lied, Scherz
!!!ONB: ESAC (Essen Associative Code) Database: VARIANT
!!!AMT: simple duple
!!!AIN: vox
!!!EED: Helmut Schaffrath
!!!EEV: 1.0
!!!GTL: Siehgst as net, da kimmt er (Kreuzpolka)
!!!source: Heigl, U.; Liertz, M. J. et al.: Registeer un Beispielsammlung zu den Forschungsexkursionen des Instituts für Volkskunde nach Oberfranken. Maschinenschriftliches Manuskript, München 1982.
!!!page: 85
!!!ENC: Anna Maria Matuszewska
!!!EEV: 2025/04/01
*-	*-
